portfolio/adventure/img/svg/fabeer.svg

<svg xmlns="http://www.w3.org/2000/svg" width="50" height="44"><path d="M14.005 23.998c-1.105 0-2.047-.391-2.828-1.172-.782-.782-1.172-1.724-1.172-2.829v-8h8v12.001h-4zm32.001 8V6.996l2-1-1-6.001H17.005l-1 4.001H1.004l-1 4 2 2.001v10c0 3.313 1.172 6.141 3.516 8.485 2.344 2.344 5.172 3.516 8.485 3.516h4l-4 6.001V44h36.001v-6.001l-4-6.001z" fill-rule="evenodd"/></svg>

<svg xmlns="http://www.w3.org/2000/svg" xmlns:xlink="http://www.w3.org/1999/xlink" preserveaspectratio="xMidYMid" width="50" height="44" viewbox="0 0 50 44">
  <defs>
  </defs>
  <path d="M14.005,23.998 C12.900,23.998 11.958,23.607 11.177,22.826 C10.395,22.044 10.005,21.102 10.005,19.997 C10.005,19.997 10.005,11.997 10.005,11.997 C10.005,11.997 18.005,11.997 18.005,11.997 C18.005,11.997 18.005,23.998 18.005,23.998 C18.005,23.998 14.005,23.998 14.005,23.998 ZM46.006,31.998 C46.006,31.998 46.006,6.996 46.006,6.996 C46.006,6.996 48.006,5.996 48.006,5.996 C48.006,5.996 47.006,-0.005 47.006,-0.005 C47.006,-0.005 17.005,-0.005 17.005,-0.005 C17.005,-0.005 16.005,3.996 16.005,3.996 C16.005,3.996 1.004,3.996 1.004,3.996 C1.004,3.996 0.004,7.996 0.004,7.996 C0.004,7.996 2.004,9.997 2.004,9.997 C2.004,9.997 2.004,19.997 2.004,19.997 C2.004,23.310 3.176,26.138 5.520,28.482 C7.864,30.826 10.692,31.998 14.005,31.998 C14.005,31.998 18.005,31.998 18.005,31.998 C18.005,31.998 14.005,37.999 14.005,37.999 C14.005,37.999 14.005,44.000 14.005,44.000 C14.005,44.000 50.006,44.000 50.006,44.000 C50.006,44.000 50.006,37.999 50.006,37.999 C50.006,37.999 46.006,31.998 46.006,31.998 Z" id="beer" fill-rule="evenodd"/>
</svg>
